img/image/features4.svg

<svg width="71" height="76" viewBox="0 0 71 76" fill="none" xmlns="http://www.w3.org/2000/svg">
<g opacity="0.8">
<path d="M35.104 40.0325H66.6719C67.4054 40.0325 67.9999 40.7001 67.9999 41.5236V45.8533C67.9999 46.6769 67.4054 47.3445 66.6719 47.3445H35.1259" stroke="#E5EEF7" stroke-width="2" stroke-miterlimit="10" stroke-linecap="round" stroke-linejoin="round"/>
<path d="M26.3049 39.7933C26.6215 37.392 28.4647 35.5495 30.6912 35.5495C33.1403 35.5495 35.1256 37.7788 35.1256 40.5288V64.5044" stroke="#E5EEF7" stroke-width="2" stroke-miterlimit="10" stroke-linecap="round" stroke-linejoin="round"/>
<path d="M26.2571 21.9117V64.551" stroke="#E5EEF7" stroke-width="2" stroke-miterlimit="10" stroke-linecap="round" stroke-linejoin="round"/>
<path d="M2 54.5854V6.4912C2 5.66764 2.59453 5.00005 3.32797 5.00005H24.9292C25.6627 5.00005 26.2572 5.66764 26.2572 6.4912V17.0375" stroke="#E5EEF7" stroke-width="2" stroke-miterlimit="10" stroke-linecap="round" stroke-linejoin="round"/>
<path d="M2 64.5044V59.4597" stroke="#E5EEF7" stroke-width="2" stroke-miterlimit="10" stroke-linecap="round" stroke-linejoin="round"/>
<path d="M52.984 64.5044H66.4895C67.2229 64.5044 67.8174 65.172 67.8174 65.9955V69.5088C67.8174 70.3323 67.2229 71 66.4895 71H3.32797C2.59453 71 2 70.3323 2 69.5088V64.5044H48.6433" stroke="#E5EEF7" stroke-width="2" stroke-miterlimit="10" stroke-linecap="round" stroke-linejoin="round"/>
<path d="M2 10.3528H26.2572" stroke="#E5EEF7" stroke-width="2" stroke-miterlimit="10" stroke-linecap="round" stroke-linejoin="round"/>
<path d="M26.2572 37.0964H2" stroke="#E5EEF7" stroke-width="2" stroke-miterlimit="10" stroke-linecap="round" stroke-linejoin="round"/>
<path d="M37.7991 47.3445L44.2997 40.0332" stroke="#E5EEF7" stroke-width="2" stroke-miterlimit="10" stroke-linecap="round" stroke-linejoin="round"/>
<path d="M50.8138 40.0332L44.3132 47.3445" stroke="#E5EEF7" stroke-width="2" stroke-miterlimit="10" stroke-linecap="round" stroke-linejoin="round"/>
<path d="M51.8564 47.3445L58.3558 40.0332" stroke="#E5EEF7" stroke-width="2" stroke-miterlimit="10" stroke-linecap="round" stroke-linejoin="round"/>
<path d="M64.8699 40.0332L58.3706 47.3445" stroke="#E5EEF7" stroke-width="2" stroke-miterlimit="10" stroke-linecap="round" stroke-linejoin="round"/>
<path d="M26.2571 58.5076H35.1258" stroke="#E5EEF7" stroke-width="2" stroke-miterlimit="10" stroke-linecap="round" stroke-linejoin="round"/>
<mask id="path-14-inside-1_1142_20331" fill="white">
<path d="M30.6918 44.8076C30.4276 44.8076 30.1743 44.6898 29.9875 44.4801C29.8007 44.2703 29.6958 43.9859 29.6958 43.6893C29.6958 43.3926 29.8007 43.1082 29.9875 42.8985C30.1743 42.6887 30.4276 42.5709 30.6918 42.5709C30.9559 42.5709 31.2093 42.6887 31.396 42.8985C31.5828 43.1082 31.6878 43.3926 31.6878 43.6893C31.6878 43.9859 31.5828 44.2703 31.396 44.4801C31.2093 44.6898 30.9559 44.8076 30.6918 44.8076Z"/>
</mask>
<path d="M30.6918 44.8076C30.4276 44.8076 30.1743 44.6898 29.9875 44.4801C29.8007 44.2703 29.6958 43.9859 29.6958 43.6893C29.6958 43.3926 29.8007 43.1082 29.9875 42.8985C30.1743 42.6887 30.4276 42.5709 30.6918 42.5709C30.9559 42.5709 31.2093 42.6887 31.396 42.8985C31.5828 43.1082 31.6878 43.3926 31.6878 43.6893C31.6878 43.9859 31.5828 44.2703 31.396 44.4801C31.2093 44.6898 30.9559 44.8076 30.6918 44.8076Z" fill="#E5EEF7"/>
<path d="M30.6918 44.8076V46.8076V44.8076ZM29.6958 43.6893H27.6958H29.6958ZM31.6878 43.6893H33.6878H31.6878ZM30.6918 46.8076C29.8175 46.8076 29.0331 46.4156 28.4939 45.8102L31.4811 43.1499C31.3155 42.964 31.0378 42.8076 30.6918 42.8076V46.8076ZM28.4939 45.8102C27.9615 45.2123 27.6958 44.4463 27.6958 43.6893H31.6958C31.6958 43.5254 31.64 43.3283 31.4811 43.1499L28.4939 45.8102ZM27.6958 43.6893C27.6958 42.9322 27.9615 42.1662 28.4939 41.5683L31.4811 44.2286C31.64 44.0502 31.6958 43.8531 31.6958 43.6893H27.6958ZM28.4939 41.5683C29.0331 40.9629 29.8175 40.5709 30.6918 40.5709V44.5709C31.0378 44.5709 31.3155 44.4145 31.4811 44.2286L28.4939 41.5683ZM30.6918 40.5709C31.5661 40.5709 32.3504 40.9629 32.8896 41.5683L29.9025 44.2286C30.0681 44.4145 30.3458 44.5709 30.6918 44.5709V40.5709ZM32.8896 41.5683C33.422 42.1662 33.6878 42.9322 33.6878 43.6893H29.6878C29.6878 43.8531 29.7436 44.0502 29.9025 44.2286L32.8896 41.5683ZM33.6878 43.6893C33.6878 44.4463 33.422 45.2123 32.8896 45.8102L29.9025 43.1499C29.7436 43.3283 29.6878 43.5254 29.6878 43.6893H33.6878ZM32.8896 45.8102C32.3504 46.4156 31.5661 46.8076 30.6918 46.8076V42.8076C30.3458 42.8076 30.0681 42.964 29.9025 43.1499L32.8896 45.8102Z" fill="#E5EEF7" mask="url(#path-14-inside-1_1142_20331)"/>
<path d="M19.9134 57.5266H8.34384C7.6104 57.5266 7.01587 56.8589 7.01587 56.0355V45.7048C7.01587 44.8812 7.6104 44.2136 8.34384 44.2136H19.9134C20.6468 44.2136 21.2413 44.8812 21.2413 45.7048V56.0355C21.2413 56.8589 20.6468 57.5266 19.9134 57.5266Z" stroke="#E5EEF7" stroke-width="2" stroke-miterlimit="10" stroke-linecap="round" stroke-linejoin="round"/>
<path d="M20.8153 44.6118L7.44189 57.1274" stroke="#E5EEF7" stroke-width="2" stroke-miterlimit="10" stroke-linecap="round" stroke-linejoin="round"/>
</g>
</svg>

<svg width="71" height="76" fill="none" xmlns="http://www.w3.org/2000/svg"><g opacity=".8"><path d="M35.104 40.032h31.568c.733 0 1.328.668 1.328 1.492v4.33c0 .823-.595 1.49-1.328 1.49H35.126" stroke="#E5EEF7" stroke-width="2" stroke-miterlimit="10" stroke-linecap="round" stroke-linejoin="round"/><path d="M26.305 39.793c.317-2.401 2.16-4.243 4.386-4.243 2.45 0 4.435 2.229 4.435 4.979v23.975M26.257 21.912V64.55M2 54.585V6.491c0-.823.595-1.49 1.328-1.49h21.601c.734-.001 1.328.667 1.328 1.49v10.547M2 64.504V59.46M52.984 64.504H66.49c.733 0 1.327.668 1.327 1.492v3.513c0 .823-.594 1.491-1.327 1.491H3.328C2.595 71 2 70.332 2 69.509v-5.005h46.643M2 10.353h24.257M26.257 37.096H2M37.8 47.344l6.5-7.31M50.814 40.033l-6.5 7.311M51.856 47.344l6.5-7.31M64.87 40.033l-6.5 7.311M26.257 58.508h8.869" stroke="#E5EEF7" stroke-width="2" stroke-miterlimit="10" stroke-linecap="round" stroke-linejoin="round"/><mask id="a" fill="#fff"><path d="M30.692 44.808a.944.944 0 0 1-.704-.328 1.192 1.192 0 0 1-.292-.79c0-.297.105-.582.291-.791a.944.944 0 0 1 .705-.328c.264 0 .517.118.704.328.187.21.292.494.292.79 0 .297-.105.581-.292.791a.944.944 0 0 1-.704.328Z"/></mask><path d="M30.692 44.808a.944.944 0 0 1-.704-.328 1.192 1.192 0 0 1-.292-.79c0-.297.105-.582.291-.791a.944.944 0 0 1 .705-.328c.264 0 .517.118.704.328.187.21.292.494.292.79 0 .297-.105.581-.292.791a.944.944 0 0 1-.704.328Z" fill="#E5EEF7"/><path d="M30.692 44.808v2-2Zm-.996-1.119h-2 2Zm1.992 0h2-2Zm-.996 3.119a2.944 2.944 0 0 1-2.198-.998l2.987-2.66a1.058 1.058 0 0 0-.79-.342v4Zm-2.198-.998a3.191 3.191 0 0 1-.798-2.12h4a.81.81 0 0 0-.215-.54l-2.987 2.66Zm-.798-2.12c0-.758.265-1.524.798-2.122l2.987 2.66a.81.81 0 0 0 .215-.539h-4Zm.798-2.122a2.944 2.944 0 0 1 2.198-.997v4c.346 0 .623-.157.79-.342l-2.988-2.66Zm2.198-.997c.874 0 1.658.392 2.198.997l-2.988 2.66c.166.186.444.343.79.343v-4Zm2.198.997c.532.598.798 1.364.798 2.121h-4c0 .164.056.361.215.54l2.987-2.66Zm.798 2.121c0 .757-.266 1.523-.798 2.121l-2.988-2.66a.81.81 0 0 0-.214.54h4Zm-.798 2.121a2.944 2.944 0 0 1-2.198.998v-4c-.346 0-.624.156-.79.342l2.988 2.66Z" fill="#E5EEF7" mask="url(#a)"/><path d="M19.913 57.527H8.343c-.733 0-1.327-.668-1.327-1.492v-10.33c0-.824.594-1.491 1.328-1.491h11.57c.733 0 1.327.667 1.327 1.49v10.331c0 .824-.594 1.492-1.328 1.492ZM20.815 44.612 7.442 57.127" stroke="#E5EEF7" stroke-width="2" stroke-miterlimit="10" stroke-linecap="round" stroke-linejoin="round"/></g></svg>
